X: 7
T: Pollonesse #7
M: 3/4
L: 1/16
K: D
Q:120
d2A2 d2f2 e2f2|c2d2 e2g2 e2g2 f2e2|d2c2 d2e2 f2g2|a2c2 d4D4:|
|:f2a2 f2a2 g2f2|e2g2 e2a2 f2e2|d2c2 d2f2 e2d2|c2d2 e2g2 e2g2 f2e2|d2c2 d2e2 f2g2|a2c2d4D4:|

